X:213
T:Windy Gap (reel), The 
T:Ah Surely!  
B:CRE1.081 (Bearna na Gaoithe)
F:file ID: cre.1/213windy
S:Sonny Brogan
M:C
L:1/8
Q:180
R:reel
K:G
AGAc BGG2|BGBd g2fg|eAA2 G2Bd|e2dc Bdgd|
AGAc BGG2|BGBd gfga|(3bag ag egfa|gedc BGG2:|
bgg2 agef|gage dega|bgg2 aged|eaa2 eaa2|
bgg2 agef|gage dega|bgag egfa|gedc BGG2:|

%%%

